X: 1132
T: Dumfries House.   a Reel.
C: by Jo. Riddle
%R: reel
N: This is version 2, for ABC software that understands voice overlays.
B: Niel Gow & Sons "Complete Repository" v.1 p.13 #2
Z: 2021 John Chambers <jc:trillian.mit.edu>
M: 6/8
L: 1/8
K: G
% - - - - - - - - - -
% Voice 1 formatted for proofreading.
V: 1 staves=2
D |\
TG3 G2g | dBG GAB | (cde"^2d" dcB) & (cGE"_1st" EFG) | AFD DEF | TG3 Gg2 | dBG GAB | cEA TF3{EF} | G3 G2 :|
B/c/ |\
.d.B.d .d.B.d | gag Tf2e | dBd ~d>cB | AFD D2B/c/ | dBd dBd | gag Tf2e | dcB AGF | TG3 G2 ||
B/c/ |\
dBd dBd | gag Tf2e | dBd dcB | AFD D2B/c/ | dBd ece | fdf {a}gfe | dcB Agf | gdB G2 |]
% - - - - - - - - - -
% Voice 2 preserves the book's staff layout.
V: 2 clef=bass middle=d
z | G3 g3 | G3 G3 | c3 c3 | d3 d3 | g3 g3 | g3 B3 | c3 d3 | G3 G2 :| z |
g3 g3 | g3 d2c | B3 G3 | d3 D3 | G3 g3 | g3 d2c | B3 d3 | g3 G2 || z | g3 g3 |
g3 d'2c' | b3 g3 | d3 d3 | B3 c3 | d3 e2c | d3 D3 | G3 G2 |]
% - - - - - - - - - -
%%text * Bottom line 1st time; top line 2nd time.


